X: 3922
T:Huntsman's Chorus. JMT082
M:2/4
L:1/8
Q:180
S:J.Moore,Tyneside,1841.(56b)
R:Cotillion
O:England
A:Northumbria
Z:C.G.P
K:D
A|d2d/e/f/g/|a2ff|eaea|f/g/f/e/ dA|d2d/e/f/g/|!a2ff|1 f/e/d/e/ fe|d2:||2
eac'b|a3|
|e|f2ff|d2dd|g2gg|!e2ee|f2ff|d2dd|g2gg|e2zA|f2ff|g2gg|!e2f/e/d/e/|f2dd|f
2ff|g2ff|f/e/d/e/ fe|d3A|!
AA/A/ AA/A/|AA/A/ AA/A/||d2Af|d2Af|{a}ge {a}ge|!{a}ge {a}ge||fd/f/ a2|fd
/f/ a2|fd/d/ dd/d/|d4|]
